src/topics/icons/less.svg

<svg height="110" viewBox="0 0 256 110" width="256" xmlns="http://www.w3.org/2000/svg" xmlns:xlink="http://www.w3.org/1999/xlink"><defs><linearGradient id="a" x1="50%" x2="50%" y1="0%" y2="100%"><stop offset="0" stop-color="#2e4f82"/><stop offset="1" stop-color="#182e4d"/></linearGradient><path id="b" d="m-15.94.496h255.94v109.504h-255.94"/><mask id="c" fill="#fff"><use fill="#fff" fill-rule="evenodd" xlink:href="#b"/></mask></defs><g fill="none" fill-rule="evenodd" transform="translate(16)"><path d="m224.236 88.738c0 11.564-9.688 21.025-21.529 21.025h-180.957c-11.841 0-21.529-9.461-21.529-21.025v-66.957c0-11.563 9.688-21.025 21.529-21.025h180.957c11.841 0 21.529 9.462 21.529 21.025z" fill="url(#a)"/><use xlink:href="#b"/><g fill="#faf9f8"><path d="m229.071 40.43c0-8.197 1.261-13.031 1.261-21.858 0-13.662-5.045-18.076-16.184-18.076h-8.197v9.668h2.522c5.675 0 6.936 1.892 6.936 8.828 0 6.515-.631 13.031-.631 20.598 0 9.668 3.153 13.451 9.458 14.922v.631c-6.305 1.471-9.458 5.255-9.458 14.923 0 7.566.631 13.662.631 20.598 0 7.146-1.471 9.037-6.936 9.037v.21h-2.522v10.089h8.197c11.139 0 16.184-4.414 16.184-18.075 0-9.038-1.261-13.662-1.261-21.859 0-4.414 2.732-9.038 10.929-9.458v-10.93c-8.197-.21-10.929-4.834-10.929-9.248" mask="url(#c)"/><path d="m135.961 53.251c-6.516-2.522-12.401-3.993-12.401-8.197 0-3.152 2.522-5.044 7.146-5.044s8.828 1.892 13.452 5.255l8.407-11.14c-5.255-3.993-12.401-8.197-22.069-8.197-14.292 0-23.961 8.197-23.961 19.757 0 10.299 9.038 15.553 16.605 18.496 6.515 2.522 12.821 4.624 12.821 8.827 0 3.153-2.523 5.255-8.197 5.255-5.255 0-10.509-2.102-16.184-6.516l-8.197 12.191c6.305 5.254 15.973 8.827 23.96 8.827 16.815 0 25.852-8.827 25.852-20.387s-9.037-16.394-17.234-19.127" mask="url(#c)"/><path d="m186.824 53.251c-6.305-2.522-12.19-3.993-12.19-8.197 0-3.152 2.522-5.044 7.146-5.044s8.828 1.892 13.452 5.255l8.407-11.14c-5.255-3.993-12.401-8.197-22.069-8.197-14.293 0-23.961 8.197-23.961 19.757 0 10.299 9.038 15.553 16.604 18.496 6.516 2.522 12.821 4.624 12.821 8.827 0 3.153-2.522 5.255-8.197 5.255-5.254 0-10.509-2.102-16.183-6.516l-8.408 12.191c6.306 5.254 15.974 8.827 23.961 8.827 16.814 0 25.852-8.827 25.852-20.387s-9.038-16.394-17.235-19.127" mask="url(#c)"/><path d="m61.977 52.2c1.261-8.407 6.305-12.4 12.19-12.4 7.567 0 10.51 5.254 10.51 12.4zm38.673 3.784c.21-17.025-9.038-30.266-26.693-30.266-15.343 0-30.055 12.821-29.635 32.998 0 20.808 13.662 32.998 31.737 32.998 7.567 0 15.974-2.732 22.489-7.146l-6.305-11.139c-4.624 2.732-9.038 3.993-13.662 3.993-8.407 0-14.923-3.993-16.604-13.662h38.043c.21-1.471.63-4.413.63-7.776z" mask="url(#c)"/><path d="m43.271 77.002c-1.471 0-3.363-1.261-3.363-5.255v-71.251h-29.846c-11.349 0-16.394 4.414-16.394 18.076 0 9.037 1.261 14.082 1.261 21.858 0 4.414-2.732 9.038-10.929 9.458v10.93c8.197.21 10.929 4.834 10.929 9.248 0 7.777-1.261 12.4-1.261 21.438 0 13.662 5.045 18.076 16.184 18.076h8.197v-9.669h-2.522c-5.254 0-6.936-2.101-6.936-9.037s.631-12.821.631-20.598c0-9.668-3.153-13.452-9.459-14.923v-.63c6.306-1.472 9.459-5.255 9.459-14.923 0-7.567-.631-13.662-.631-20.598s1.471-8.827 6.936-8.827h5.675v60.321c0 12.821 4.414 21.229 17.235 21.229 3.993 0 7.146-.631 9.458-1.472l-2.102-13.661c-1.261.21-1.891.21-2.522.21" mask="url(#c)"/></g></g></svg>

<?xml version="1.0" encoding="UTF-8" standalone="no"?>
<svg width="256px" height="110px" viewBox="0 0 256 110" version="1.1" xmlns="http://www.w3.org/2000/svg" xmlns:xlink="http://www.w3.org/1999/xlink">
    <defs>
        <linearGradient x1="50%" y1="0%" x2="50%" y2="100%" id="linearGradient-1">
            <stop stop-color="#2E4F82" offset="0%"></stop>
            <stop stop-color="#182E4D" offset="100%"></stop>
        </linearGradient>
        <path id="path-2" d="M224.236,88.738 C224.236,100.302 214.548,109.763 202.707,109.763 L21.75,109.763 C9.909,109.763 0.221,100.302 0.221,88.738 L0.221,21.781 C0.221,10.218 9.909,0.756 21.75,0.756 L202.707,0.756 C214.548,0.756 224.236,10.218 224.236,21.781 L224.236,88.738"></path>
        <path id="path-4" d="M-15.94,0.496 L240,0.496 L240,110 L-15.94,110"></path>
    </defs>
    <g stroke="none" stroke-width="1" fill="none" fill-rule="evenodd">
        <g transform="translate(16.000000, 0.000000)">
            <mask id="mask-3" fill="white">
                <use xlink:href="#path-2"></use>
            </mask>
            <use fill="url(#linearGradient-1)" xlink:href="#path-2"></use>
            <mask id="mask-5" fill="white">
                <use xlink:href="#path-4"></use>
            </mask>
            <use xlink:href="#path-4"></use>
            <path d="M229.071,40.43 C229.071,32.233 230.332,27.399 230.332,18.572 C230.332,4.91 225.287,0.496 214.148,0.496 L205.951,0.496 L205.951,10.164 L208.473,10.164 C214.148,10.164 215.409,12.056 215.409,18.992 C215.409,25.507 214.778,32.023 214.778,39.59 C214.778,49.258 217.931,53.041 224.236,54.512 L224.236,55.143 C217.931,56.614 214.778,60.398 214.778,70.066 C214.778,77.632 215.409,83.728 215.409,90.664 C215.409,97.81 213.938,99.701 208.473,99.701 L208.473,99.911 L205.951,99.911 L205.951,110 L214.148,110 C225.287,110 230.332,105.586 230.332,91.925 C230.332,82.887 229.071,78.263 229.071,70.066 C229.071,65.652 231.803,61.028 240,60.608 L240,49.678 C231.803,49.468 229.071,44.844 229.071,40.43" fill="#FAF9F8" mask="url(#mask-5)"></path>
            <path d="M135.961,53.251 C129.445,50.729 123.56,49.258 123.56,45.054 C123.56,41.902 126.082,40.01 130.706,40.01 C135.33,40.01 139.534,41.902 144.158,45.265 L152.565,34.125 C147.31,30.132 140.164,25.928 130.496,25.928 C116.204,25.928 106.535,34.125 106.535,45.685 C106.535,55.984 115.573,61.238 123.14,64.181 C129.655,66.703 135.961,68.805 135.961,73.008 C135.961,76.161 133.438,78.263 127.764,78.263 C122.509,78.263 117.255,76.161 111.58,71.747 L103.383,83.938 C109.688,89.192 119.356,92.765 127.343,92.765 C144.158,92.765 153.195,83.938 153.195,72.378 C153.195,60.818 144.158,55.984 135.961,53.251" fill="#FAF9F8" mask="url(#mask-5)"></path>
            <path d="M186.824,53.251 C180.519,50.729 174.634,49.258 174.634,45.054 C174.634,41.902 177.156,40.01 181.78,40.01 C186.404,40.01 190.608,41.902 195.232,45.265 L203.639,34.125 C198.384,30.132 191.238,25.928 181.57,25.928 C167.277,25.928 157.609,34.125 157.609,45.685 C157.609,55.984 166.647,61.238 174.213,64.181 C180.729,66.703 187.034,68.805 187.034,73.008 C187.034,76.161 184.512,78.263 178.837,78.263 C173.583,78.263 168.328,76.161 162.654,71.747 L154.246,83.938 C160.552,89.192 170.22,92.765 178.207,92.765 C195.021,92.765 204.059,83.938 204.059,72.378 C204.059,60.818 195.021,55.984 186.824,53.251" fill="#FAF9F8" mask="url(#mask-5)"></path>
            <path d="M61.977,52.2 C63.238,43.793 68.282,39.8 74.167,39.8 C81.734,39.8 84.677,45.054 84.677,52.2 L61.977,52.2 L61.977,52.2 Z M100.65,55.984 C100.86,38.959 91.612,25.718 73.957,25.718 C58.614,25.718 43.902,38.539 44.322,58.716 C44.322,79.524 57.984,91.714 76.059,91.714 C83.626,91.714 92.033,88.982 98.548,84.568 L92.243,73.429 C87.619,76.161 83.205,77.422 78.581,77.422 C70.174,77.422 63.658,73.429 61.977,63.76 L100.02,63.76 C100.23,62.289 100.65,59.347 100.65,55.984 L100.65,55.984 Z" fill="#FAF9F8" mask="url(#mask-5)"></path>
            <path d="M43.271,77.002 C41.8,77.002 39.908,75.741 39.908,71.747 L39.908,0.496 L10.062,0.496 C-1.287,0.496 -6.332,4.91 -6.332,18.572 C-6.332,27.609 -5.071,32.654 -5.071,40.43 C-5.071,44.844 -7.803,49.468 -16,49.888 L-16,60.818 C-7.803,61.028 -5.071,65.652 -5.071,70.066 C-5.071,77.843 -6.332,82.466 -6.332,91.504 C-6.332,105.166 -1.287,109.58 9.852,109.58 L18.049,109.58 L18.049,99.911 L15.527,99.911 C10.273,99.911 8.591,97.81 8.591,90.874 C8.591,83.938 9.222,78.053 9.222,70.276 C9.222,60.608 6.069,56.824 -0.237,55.353 L-0.237,54.723 C6.069,53.251 9.222,49.468 9.222,39.8 C9.222,32.233 8.591,26.138 8.591,19.202 C8.591,12.266 10.062,10.375 15.527,10.375 L21.202,10.375 L21.202,70.696 C21.202,83.517 25.616,91.925 38.437,91.925 C42.43,91.925 45.583,91.294 47.895,90.453 L45.793,76.792 C44.532,77.002 43.902,77.002 43.271,77.002" fill="#FAF9F8" mask="url(#mask-5)"></path>
        </g>
    </g>
</svg>
